static/img/contribute_token.svg

<svg xmlns="http://www.w3.org/2000/svg" viewBox="0 0 80 80" version="1.1">
  <defs>
    <linearGradient id="a" x1="39.875" x2="39.875" y1="15.047" y2="64.702" gradientUnits="userSpaceOnUse">
      <stop stop-color="#E6BE3E" offset="0"/>
      <stop stop-color="#E6BE3E" stop-opacity="0" offset="1"/>
    </linearGradient>
  </defs>
  <path d="m40 80c22.091 0 40-17.909 40-40s-17.909-40-40-40-40 17.909-40 40 17.909 40 40 40z" fill="#FAD250"/>
  <circle cx="39.875" cy="39.875" r="24.828" fill="url(#a)"/>
  <path d="m75.987 39.874c0-19.945-16.168-36.113-36.113-36.113h-3e-4v6.0188c16.62 5e-5 30.094 13.474 30.094 30.094h6.0192z" clip-rule="evenodd" fill="#FEF0C4" fill-rule="evenodd"/>
  <path d="m31.24 43.415c-0.3784 0.4347-0.8453 0.7808-1.4008 1.0384-0.5554 0.2496-1.1954 0.3744-1.92 0.3744-0.6601 0-1.2719-0.1087-1.8354-0.326-0.5555-0.2174-1.0385-0.5233-1.4491-0.9178-0.4106-0.4025-0.7326-0.8815-0.966-1.437-0.2335-0.5554-0.3502-1.1673-0.3502-1.8354 0-0.6843 0.1167-1.3042 0.3502-1.8597 0.2415-0.5554 0.5715-1.0264 0.9902-1.4128 0.4186-0.3945 0.9096-0.6963 1.4732-0.9057 0.5635-0.2093 1.1713-0.3139 1.8234-0.3139 0.6037 0 1.1954 0.1087 1.7751 0.326 0.5876 0.2093 1.0626 0.5193 1.4249 0.9298l-1.4008 1.4008c-0.1932-0.2657-0.4468-0.4629-0.7607-0.5917-0.314-0.1288-0.636-0.1932-0.9661-0.1932-0.3622 0-0.6963 0.0684-1.0022 0.2053-0.2979 0.1288-0.5555 0.3099-0.7729 0.5434-0.2173 0.2334-0.3864 0.5112-0.5071 0.8332-0.1208 0.3139-0.1812 0.6601-0.1812 1.0385 0 0.3864 0.0604 0.7406 0.1812 1.0626 0.1207 0.322 0.2857 0.5998 0.495 0.8332 0.2174 0.2254 0.475 0.4025 0.7729 0.5313 0.2978 0.1288 0.6239 0.1932 0.9781 0.1932 0.4106 0 0.7688-0.0805 1.0747-0.2415s0.5515-0.3703 0.7366-0.6279l1.437 1.3525zm8.8669-3.1155c0 0.7487-0.1409 1.3967-0.4227 1.9441-0.2737 0.5394-0.64 0.9862-1.0988 1.3404-0.4508 0.3462-0.962 0.6038-1.5336 0.7728-0.5716 0.1611-1.1512 0.2416-1.7389 0.2416h-3.1879v-8.5495h3.0913c0.6038 0 1.1995 0.0725 1.7872 0.2174 0.5877 0.1368 1.1109 0.3703 1.5698 0.7004 0.4589 0.322 0.8292 0.7567 1.1109 1.3041 0.2818 0.5474 0.4227 1.2237 0.4227 2.0287zm-2.1495 0c0-0.483-0.0805-0.8815-0.2415-1.1955-0.1529-0.322-0.3622-0.5756-0.6279-0.7607-0.2576-0.1932-0.5555-0.3301-0.8936-0.4106-0.33-0.0805-0.6722-0.1208-1.0264-0.1208h-1.0264v4.9993h0.9781c0.3703 0 0.7245-0.0403 1.0627-0.1208 0.3461-0.0885 0.648-0.2294 0.9056-0.4226 0.2657-0.1932 0.475-0.4508 0.6279-0.7728 0.161-0.3221 0.2415-0.7205 0.2415-1.1955zm3.519 4.2989v-8.5495h5.7479v1.751h-3.7554v1.606h3.5502v1.6543h-3.5502v1.7751h3.9728v1.7631h-5.9653zm11.573 0h-2.0649l-3.2362-8.5495h2.3185l1.9803 6.0619h0.0483l1.9683-6.0619h2.2823l-3.2966 8.5495z" fill="#B09026"/>
</svg>

<svg xmlns="http://www.w3.org/2000/svg" fill="none" viewBox="0 0 80 80" version="1.1">
  <defs>
  <linearGradient id="paint0_linear" x1="39.8748" y1="15.047" x2="39.8748" y2="64.7022" gradientUnits="userSpaceOnUse">
  <stop stop-color="#E6BE3E"/>
  <stop offset="1" stop-color="#E6BE3E" stop-opacity="0"/>
  </linearGradient>
  </defs>
  <path d="M40 80C62.0914 80 80 62.0914 80 40C80 17.9086 62.0914 0 40 0C17.9086 0 0 17.9086 0 40C0 62.0914 17.9086 80 40 80Z" fill="#FAD250"/>
  <circle cx="39.8748" cy="39.8746" r="24.8276" fill="url(#paint0_linear)"/>
  <path fill-rule="evenodd" clip-rule="evenodd" d="M75.9872 39.8745C75.9872 19.9299 59.8189 3.76166 39.8743 3.76166H39.874V9.78044C56.4945 9.78049 69.968 23.254 69.968 39.8745L75.9872 39.8745Z" fill="#FEF0C4"/>
  <path d="M31.2405 43.4154C30.8621 43.8501 30.3952 44.1962 29.8397 44.4538C29.2843 44.7034 28.6443 44.8282 27.9197 44.8282C27.2596 44.8282 26.6478 44.7195 26.0843 44.5022C25.5288 44.2848 25.0458 43.9789 24.6352 43.5844C24.2246 43.1819 23.9026 42.7029 23.6692 42.1474C23.4357 41.592 23.319 40.9801 23.319 40.312C23.319 39.6277 23.4357 39.0078 23.6692 38.4523C23.9107 37.8969 24.2407 37.4259 24.6594 37.0395C25.078 36.645 25.569 36.3432 26.1326 36.1338C26.6961 35.9245 27.3039 35.8199 27.956 35.8199C28.5597 35.8199 29.1514 35.9286 29.7311 36.1459C30.3187 36.3552 30.7937 36.6652 31.156 37.0757L29.7552 38.4765C29.562 38.2108 29.3084 38.0136 28.9945 37.8848C28.6805 37.756 28.3585 37.6916 28.0284 37.6916C27.6662 37.6916 27.3321 37.76 27.0262 37.8969C26.7283 38.0257 26.4707 38.2068 26.2533 38.4403C26.036 38.6737 25.8669 38.9515 25.7462 39.2735C25.6254 39.5874 25.565 39.9336 25.565 40.312C25.565 40.6984 25.6254 41.0526 25.7462 41.3746C25.8669 41.6966 26.0319 41.9744 26.2412 42.2078C26.4586 42.4332 26.7162 42.6103 27.0141 42.7391C27.3119 42.8679 27.638 42.9323 27.9922 42.9323C28.4028 42.9323 28.761 42.8518 29.0669 42.6908C29.3728 42.5298 29.6184 42.3205 29.8035 42.0629L31.2405 43.4154ZM40.1074 40.2999C40.1074 41.0486 39.9665 41.6966 39.6847 42.244C39.411 42.7834 39.0447 43.2302 38.5859 43.5844C38.1351 43.9306 37.6239 44.1882 37.0523 44.3572C36.4807 44.5183 35.9011 44.5988 35.3134 44.5988H32.1255V36.0493H35.2168C35.8206 36.0493 36.4163 36.1218 37.004 36.2667C37.5917 36.4035 38.1149 36.637 38.5738 36.9671C39.0327 37.2891 39.403 37.7238 39.6847 38.2712C39.9665 38.8186 40.1074 39.4949 40.1074 40.2999ZM37.9579 40.2999C37.9579 39.8169 37.8774 39.4184 37.7164 39.1044C37.5635 38.7824 37.3542 38.5288 37.0885 38.3437C36.8309 38.1505 36.533 38.0136 36.1949 37.9331C35.8649 37.8526 35.5227 37.8123 35.1685 37.8123H34.1421V42.8116H35.1202C35.4905 42.8116 35.8447 42.7713 36.1829 42.6908C36.529 42.6023 36.8309 42.4614 37.0885 42.2682C37.3542 42.075 37.5635 41.8174 37.7164 41.4954C37.8774 41.1733 37.9579 40.7749 37.9579 40.2999ZM41.4769 44.5988V36.0493H47.2248V37.8003H43.4694V39.4063H47.0196V41.0606H43.4694V42.8357H47.4422V44.5988H41.4769ZM53.0503 44.5988H50.9854L47.7492 36.0493H50.0677L52.048 42.1112H52.0963L54.0646 36.0493H56.3469L53.0503 44.5988Z" fill="#B09026"/>
</svg>
